justvector/cloudapp.svg

<?xml version="1.0" encoding="iso-8859-1"?>
<!-- Generator: Adobe Illustrator 15.0.0, SVG Export Plug-In . SVG Version: 6.00 Build 0)  -->
<!DOCTYPE svg PUBLIC "-//W3C//DTD SVG 1.1//EN" "http://www.w3.org/Graphics/SVG/1.1/DTD/svg11.dtd">
<svg version="1.1" id="Layer_1" xmlns="http://www.w3.org/2000/svg" xmlns:xlink="http://www.w3.org/1999/xlink" x="0px" y="0px"
	 width="100px" height="100px" viewBox="0 0 100 100" style="enable-background:new 0 0 100 100;" xml:space="preserve">
<path id="CloudApp" d="M24.124,82.441l-0.006,0.021h0.46c0.238,0.01,0.473,0.037,0.713,0.037c0.242,0,0.476-0.027,0.714-0.037
	h45.103v-0.012c0.33,0.012,0.652,0.049,0.984,0.049c12.652,0,22.909-10.34,22.909-23.094c0-12.756-10.257-23.095-22.909-23.095
	c-0.466,0-0.923,0.042-1.383,0.07C68.743,25.642,59.422,17.5,48.199,17.5c-12.651,0-22.908,10.34-22.908,23.095
	c0,0.335,0.036,0.664,0.05,0.996c-0.017,0-0.032-0.002-0.05-0.002c-11.205,0-20.29,9.157-20.29,20.455
	C5.001,72.943,13.465,81.828,24.124,82.441z"/>
</svg>

<?xml version="1.0" encoding="UTF-8" standalone="no"?>
<!DOCTYPE svg PUBLIC "-//W3C//DTD SVG 1.1//EN" "http://www.w3.org/Graphics/SVG/1.1/DTD/svg11.dtd">
<svg width="100%" height="100%" viewBox="0 0 100 100" version="1.1" xmlns="http://www.w3.org/2000/svg" xmlns:xlink="http://www.w3.org/1999/xlink" xml:space="preserve" xmlns:serif="http://www.serif.com/" style="fill-rule:evenodd;clip-rule:evenodd;stroke-linejoin:round;stroke-miterlimit:2;">
    <path id="CloudApp" d="M24.124,82.441L24.118,82.462L24.578,82.462C24.816,82.472 25.051,82.499 25.291,82.499C25.533,82.499 25.767,82.472 26.005,82.462L71.108,82.462L71.108,82.45C71.438,82.462 71.76,82.499 72.092,82.499C84.744,82.499 95.001,72.159 95.001,59.405C95.001,46.649 84.744,36.31 72.092,36.31C71.626,36.31 71.169,36.352 70.709,36.38C68.743,25.642 59.422,17.5 48.199,17.5C35.548,17.5 25.291,27.84 25.291,40.595C25.291,40.93 25.327,41.259 25.341,41.591C25.324,41.591 25.309,41.589 25.291,41.589C14.086,41.589 5.001,50.746 5.001,62.044C5.001,72.943 13.465,81.828 24.124,82.441Z" style="fill-rule:nonzero;"/>
</svg>
